X: 3218
T: Before The Storm
R: jig
M: 6/8
K: Gdorian
G,2 G G,FG|GFG A2G|G,2 G G,FG|DCF DCB,|
G,2 G G,FG|DFG A2D|ABA GFD|FDF DCB,:|
D2 D DEF|GFG A2=B|C'2 C' C'D'E'|E'D'C' AGF:|
D2 D' D'C'A|AGA G2A|D'3 D'C'D'|E'F'E' D'C'A|
C'D'E' D'C'A|AGA G2 A|BC'B BAF|DCF DCB,:|

